ukui-icon-theme-default/scalable/actions/call-stop-symbolic.svg

<svg id="call-end" xmlns="http://www.w3.org/2000/svg" viewBox="0 0 16 16"><defs><style>.cls-1{opacity:0.75;}.cls-2{fill:#1f2022;}</style></defs><title>call-stop-symbolic</title><g id="_16" data-name=" 16" class="cls-1"><path class="cls-2" d="M4.7,7h6.5A4.9,4.9,0,0,1,15,9.5V10H12A2.19,2.19,0,0,0,9.8,8H6.2A2,2,0,0,0,4,9.65V10H1V9.4l.1-.3c.1-.3.3-.5.4-.8A4.83,4.83,0,0,1,4.7,7m0-1A5.18,5.18,0,0,0,.9,7.7,6.16,6.16,0,0,0,0,9.2v1a.78.78,0,0,0,.76.8H4.2a.87.87,0,0,0,.6-.2,1,1,0,0,0,.2-.7V10c0-.6.2-1,1.2-1H9.9A1,1,0,0,1,11,9.89.41.41,0,0,1,11,10v.2a.78.78,0,0,0,.76.8H15.2a1.42,1.42,0,0,0,.6-.2,1.42,1.42,0,0,0,.2-.6v-1A5.67,5.67,0,0,0,11.33,6Z"/></g></svg>

<?xml version="1.0" encoding="utf-8"?>
<!-- Generator: Adobe Illustrator 23.0.3, SVG Export Plug-In . SVG Version: 6.00 Build 0)  -->
<svg version="1.1" id="call-end" xmlns="http://www.w3.org/2000/svg" xmlns:xlink="http://www.w3.org/1999/xlink" x="0px" y="0px"
	 viewBox="0 0 16 16" style="enable-background:new 0 0 16 16;" xml:space="preserve">
<style type="text/css">
	.st0{fill:#808080;}
</style>
<title>16</title>
<g id="_16">
	<path class="st0" d="M4.7,7h6.5c1.6,0.2,3,1.1,3.7,2.5V10h-3c0-1.1-1-2-2.1-2l0,0H6.2C5.1,7.9,4.1,8.6,4,9.7C4,9.8,4,9.9,4,10H1
		V9.4l0.1-0.3c0.1-0.3,0.3-0.5,0.4-0.8C2.4,7.5,3.5,7,4.7,7 M4.7,6C3.3,6,1.9,6.6,0.9,7.7C0.5,8.2,0.2,8.7,0,9.2v1
		c0,0,0,0.8,0.8,0.8h3.4c0.2,0,0.4-0.1,0.6-0.2C4.9,10.6,5,10.4,5,10.1V10c0-0.6,0.2-1,1.2-1h3.7c0.6,0,1.1,0.4,1.1,1c0,0,0,0,0,0.1
		v0.1c0,0,0,0.8,0.8,0.8h3.4c0.2,0,0.4-0.1,0.6-0.2c0.1-0.2,0.2-0.4,0.2-0.6v-1c-0.9-1.8-2.7-3-4.7-3.1H4.7V6z"/>
</g>
</svg>
